X: 455
T: Cai cha
L: 1/8
M: 2/4
K: A
AA2B [I:setbarnb 1]| 
c> f e c | 
B4 | 
e2c B | 
c FA2 | 
Bc2e | 
B c B A | 
F2E2 | 
F< A B c | 
E4 |]

@@@ Tune index: 9329
